components/icon/svg/24/maps_home.svg

<?xml version="1.0" encoding="UTF-8"?>
<svg width="24px" height="24px" viewBox="0 0 24 24" version="1.1" xmlns="http://www.w3.org/2000/svg" xmlns:xlink="http://www.w3.org/1999/xlink">
    <!-- Generator: Sketch 64 (93537) - https://sketch.com -->
    <title>ic-db_maps_home_24</title>
    <desc>Created with Sketch.</desc>
    <g id="Symbols" stroke="none" stroke-width="1" fill="none" fill-rule="evenodd">
        <g id="24dp-Icon/Maps/Home" fill="#282D37">
            <path d="M12,2 C12.7188,2 13.4688,2.2188 14,2.75 L21.7188,10.4688 C21.9062,10.6562 22,10.9062 22,11.1875 C22,11.75 21.5625,12.1562 21,12.1562 C20.7812,12.1562 20.5625,12.0938 20.375,11.9375 L20,11.5938 L20,21 C20,21.5312 19.5938,22 19.0938,22 L14,22 C13.4688,22 13,21.5312 13,21 L13,16 L11,16 L11,21 C11,21.5312 10.5938,22 10.0938,22 L5,22 C4.4688,22 4,21.5938 4,21.0938 L4,11.5938 L3.7188,11.875 C3.5312,12.0625 3.25,12.1562 3,12.1562 C2.5625,12.1562 2,11.8438 2,11.1875 C2,10.9375 2.0312,10.7188 2.2188,10.5312 L9.875,2.875 C10.5,2.2812 11.2188,2 12,2 Z M12,4 C11.7812,4 11.5312,4.0625 11.375,4.2188 L6,9.5938 L6,20 L9,20 L9,15 C9,14.5 9.375,14 9.9062,14 L14,14 C14.5312,14 15,14.4062 15,14.9062 L15,20 L18,20 L18,9.5938 L12.7188,4.2812 C12.5312,4.0625 12.25,4 12,4 Z" id="🎨-Color"></path>
        </g>
    </g>
</svg>

<svg width="24" height="24" xmlns="http://www.w3.org/2000/svg"><path d="M12 2c.719 0 1.469.219 2 .75l7.719 7.719a.99.99 0 01.281.719c0 .562-.438.968-1 .968a.955.955 0 01-.625-.219L20 11.595V21c0 .531-.406 1-.906 1H14c-.531 0-1-.469-1-1v-5h-2v5c0 .531-.406 1-.906 1H5c-.531 0-1-.406-1-.906v-9.5l-.281.281a1.043 1.043 0 01-.719.281c-.438 0-1-.312-1-.969 0-.25.031-.468.219-.656l7.656-7.656C10.5 2.281 11.219 2 12 2zm0 2c-.219 0-.469.063-.625.219L6 9.594V20h3v-5c0-.5.375-1 .906-1H14c.531 0 1 .406 1 .906V20h3V9.594L12.719 4.28C12.53 4.063 12.25 4 12 4z" fill="#282D37" fill-rule="evenodd"/></svg>
